X:1
T:Title
%%score ( 1 2 ) { 3 | 4 }
L:1/8
Q:1/4=87
M:3/4
K:F
V:1 treble nm="Grand Piano, Soprano"
V:2 treble 
V:3 bass nm="Choir Pad, Bring Peace to My Soul 1905"
V:4 bass 
V:1
 [CA]2 C3 [CD] | [CF][FA] [Ec]>[CE] [CE]2 | C2 [CB]3 [CB] | [CA][CE] [CG]>[CF] [CF]2 | %4
w: By~James~Milton~Dungan * *||||
 [CA]2 C3 [DF] | [DA][Dc] [Dc]>[DB] D[DE] |[M:6/8] [DF][DG][CA]- [CA]/C/[CB][CA]- | %7
w: |||
 [CA]/[CA]/[CG][CF]- [CF]3- | [CF][Fc][CE]- [CE]/[CE]/[CE][CE] | [EA][CG]F- F-[DF-][CF]- | %10
w: |||
 [CF]Cc- c-[Fc-][Gc]- | [Gc][Ed]c- c-[Bc-][Ac]- | [Ac][Fc][CE]- [CE]/[CE]/[CE][CE] | %13
w: |||
 [EA][EG][DF]- [DF][FG][EA]- | [EA]G/d/[Fc] [CF][CB][CA]- | [CA][CG][CF]- [CF]3- | [CF]3 z3 |] %17
w: ||||
V:2
 x6 | x6 | x6 | x6 | x6 | x6 |[M:6/8] x6 | x6 | x6 | z2 C- C z z | z2 E- E z z | z2 F- F z z | x6 | %13
 x6 | x6 | x6 | x6 |] %17
V:3
 F,2 A,3 A, | A,C B,>B, B,2 | B,2 G,3 G, | F,B, B,>A, A,2 | F,2 A,3 A, | ^F,F, G,>G, G,G, | %6
[M:6/8] G,F,F,- F,/A,/G,F,- | F,/F,/B,A,- A,3- | A,A,B,- B,/B,/B,G, | CB,A,- A,B,A,- | %10
 A,A,G,- G,A,B,- | B,B,A,- A,DC- | CA,B,- B,/B,/B,G, | CB,A,- A,[K:treble]D^C- | %14
 CD/B,/[K:bass]A, A,G,F,- | F,B,A,- A,3- | A,3 z3 |] %17
V:4
 F,,2 F,3 F, | F,F, [C,G,]>C, C,2 | C,2 C,3 C, | C,C, F,>F, F,2 | F,,2 F,3 D, | %5
 D,D, G,,>G,, B,,B,, |[M:6/8] =B,,B,,C,- C,/C,/C,C,- | C,/C,/C,F,- F,3- | %8
 F,F,G,- G,/[C,G,]/[C,G,]C,- | C,C,F,- F,F,F,- | F,F,C,- C,C,C,- | C,C,F,- F,F,F,- | %12
 F,F,G,- G,/[C,G,]/[C,G,]C,- | C,C,D,- D,B,,A,,- | A,,B,,C, C,C,C,- | C,C,F,- F,3- | F,3 z3 |] %17

